projects/svn/images/icons/tg.svg

<svg width="24" height="24" viewBox="0 0 24 24" fill="none" xmlns="http://www.w3.org/2000/svg">
<path d="M23.9998 2.36664L20.2039 21.5048C20.2039 21.5048 19.6732 22.8318 18.2131 22.1948L9.41417 15.4602C10.5968 14.3971 19.7717 6.14851 20.1729 5.77445C20.7931 5.19554 20.4082 4.85101 19.6873 5.28882L6.13526 13.8951L0.906828 12.1349C0.906828 12.1349 0.0837031 11.8429 0.00448434 11.2059C-0.0752032 10.5688 0.933547 10.2238 0.933547 10.2238L22.2481 1.86226C22.2481 1.86226 23.9998 1.09257 23.9998 2.36664Z" fill="white"/>
</svg>

<svg width="24" height="24" fill="none" xmlns="http://www.w3.org/2000/svg"><path d="M24 2.367l-3.796 19.138s-.53 1.327-1.99.69l-8.8-6.735a6482.523 6482.523 0 0010.759-9.686c.62-.578.235-.923-.486-.485L6.135 13.895l-5.228-1.76s-.823-.292-.903-.93c-.08-.636.93-.981.93-.981l21.314-8.362S24 1.092 24 2.367z" fill="#fff"/></svg>
